X: 1
T:Byssan lull
M:C
L:1/8
Q:240
C:anon.
O:Norway or Sweden
Z:Transcribed by Frank Nordberg - http://www.musicaviva.com
K:Dm
"Dm"D2A2"Dm7"A2AA|"G7"A2GF"A"E3F|"A"G2GGG2AG|"Dm"F4"A"E2z2|
"Dm"D2A2"Dm7"A2AA|"G7"A2GF"A"E3F|"A"G2GGG2AG|"Dm"F4"A"E2zE|
"Fdim"FFFD"A"E3E|"Fdim"FFFD"A"E3F|"A7"G2AB"Dm"A2"Gm"GF|"A7"E4"Dm"D2z2|]
W:
W: From "Falaleiro" http://home.t-online.de/home/pheld/homepage.htm

